images_elementary_svg/cmd/sc_shrink.svg

<?xml version="1.0" encoding="UTF-8" standalone="no"?>
<svg
   xmlns:dc="http://purl.org/dc/elements/1.1/"
   xmlns:cc="http://creativecommons.org/ns#"
   xmlns:rdf="http://www.w3.org/1999/02/22-rdf-syntax-ns#"
   xmlns:svg="http://www.w3.org/2000/svg"
   xmlns="http://www.w3.org/2000/svg"
   xmlns:xlink="http://www.w3.org/1999/xlink"
   xmlns:sodipodi="http://sodipodi.sourceforge.net/DTD/sodipodi-0.dtd"
   xmlns:inkscape="http://www.inkscape.org/namespaces/inkscape"
   viewBox="0 0 16 16"
   version="1.1"
   id="svg4"
   sodipodi:docname="sc_shrink.svg"
   inkscape:version="0.92.3 (unknown)"
   inkscape:export-filename="/home/rizmut/Dokumen/Rizmut/Github/libreoffice-style-elementary/images_elementary/cmd/sc_grow.png"
   inkscape:export-xdpi="96"
   inkscape:export-ydpi="96"><metadata
   id="metadata10">
  <rdf:RDF>
    <cc:Work
       rdf:about="">
      <dc:format>image/svg+xml</dc:format>
      <dc:type
         rdf:resource="http://purl.org/dc/dcmitype/StillImage" />
      <dc:title></dc:title>
    </cc:Work>
  </rdf:RDF>
</metadata>
<defs
   id="defs8">
  <linearGradient
     id="linearGradient2867-449-88-871-390-598-476-591-434-148-57-177-641-289-620-227-114-444-680-744-4-1-5">
    <stop
       id="stop5430-5-0-9"
       style="stop-color:#737373;stop-opacity:1"
       offset="0" />
    <stop
       id="stop5432-2-0-0"
       style="stop-color:#636363;stop-opacity:1"
       offset="0.26238" />
    <stop
       id="stop5434-9-6-8"
       style="stop-color:#4b4b4b;stop-opacity:1"
       offset="0.704952" />
    <stop
       id="stop5436-2-7-0"
       style="stop-color:#3f3f3f;stop-opacity:1"
       offset="1" />
  </linearGradient>
  <radialGradient
     inkscape:collect="always"
     xlink:href="#linearGradient2867-449-88-871-390-598-476-591-434-148-57-177-641-289-620-227-114-444-680-744-4-1-5"
     id="radialGradient1456"
     cx="8.1682043"
     cy="0.27301171"
     fx="8.1682043"
     fy="0.27301171"
     r="6.6264548"
     gradientTransform="matrix(-1.810923,2.3786333e-8,-3.3697306e-8,-2.5654744,21.291893,1.7004812)"
     gradientUnits="userSpaceOnUse" />
</defs>
<sodipodi:namedview
   pagecolor="#ffffff"
   bordercolor="#666666"
   borderopacity="1"
   objecttolerance="10"
   gridtolerance="10"
   guidetolerance="10"
   inkscape:pageopacity="0"
   inkscape:pageshadow="2"
   inkscape:window-width="1366"
   inkscape:window-height="706"
   id="namedview6"
   showgrid="true"
   inkscape:zoom="20.85965"
   inkscape:cx="13.162735"
   inkscape:cy="7.4984031"
   inkscape:window-x="0"
   inkscape:window-y="0"
   inkscape:window-maximized="1"
   inkscape:current-layer="svg4">
  <inkscape:grid
     type="xygrid"
     id="grid817" />
</sodipodi:namedview>






     /&gt;
 <path
   d="M 9.6733632,15.519 8.7703122,12.428285 H 4.2294968 L 3.3264453,15.519 H 0.48098113 L 4.8769677,2.4811533 h 3.228835 L 12.518828,15.519 Z M 8.1398801,10.119129 Q 6.8875351,5.9182423 6.7256674,5.3675976 6.5723191,4.8169528 6.5041642,4.4972236 6.2230255,5.6340386 4.8940064,10.119129 Z"
   id="path2"
   style="fill:url(#radialGradient1456);fill-opacity:1;stroke:#000000;stroke-width:0.96200001;stroke-linejoin:round;stroke-opacity:0.47058824"
   inkscape:connector-curvature="0" />
<path
   style="fill:#ffc27d;fill-opacity:1;stroke:#f37329;stroke-width:1px;stroke-linecap:round;stroke-linejoin:round;stroke-opacity:1"
   d="M 12.500071,3.5 9.5000707,0.5 H 15.500071 Z"
   id="path822"
   inkscape:connector-curvature="0" />
</svg>

<svg xmlns="http://www.w3.org/2000/svg" xmlns:xlink="http://www.w3.org/1999/xlink" viewBox="0 0 16 16"><defs><linearGradient id="a"><stop offset="0" stop-color="#737373"/><stop offset=".262" stop-color="#636363"/><stop offset=".705" stop-color="#4b4b4b"/><stop offset="1" stop-color="#3f3f3f"/></linearGradient><radialGradient xlink:href="#a" id="b" cx="8.168" cy=".273" fx="8.168" fy=".273" r="6.626" gradientTransform="matrix(-1.81092 0 0 -2.56547 21.292 1.7)" gradientUnits="userSpaceOnUse"/></defs>/&gt;<path d="M9.673 15.52l-.903-3.092H4.23l-.904 3.09H.48L4.878 2.482h3.23l4.412 13.04zm-1.533-5.4Q6.888 5.917 6.726 5.367q-.154-.55-.222-.87-.28 1.136-1.61 5.62z" fill="url(#b)" stroke="#000" stroke-width=".962" stroke-linejoin="round" stroke-opacity=".471"/><path d="M12.5 3.5l-3-3h6z" fill="#ffc27d" stroke="#f37329" stroke-linecap="round" stroke-linejoin="round"/></svg>
